X: 38107
T: Sporan Dhòmhnaill
R: strathspey
M: 4/4
K: Dmajor
A>B d>e f>e e<f|e>d B<A B>A F>A|B2 d<e f>e e<f|1 e>d B<A B4:|2 e>d B<A d2 d>c||
B<A F>E F<D D>E|F<A A>F A2 B>d|B<A F>E F<D D>D|1 d>B B<A B3A:|2 d>B B<A d2 d>B||

